X: 305793
M: 6/8
L: 1/8
K: C
EGc cBc | Bdf f2a | gec cBc | e3 d2 G/F/ |\
EGc cBc | Bde f2a | gec fdB | d3 c2 H|]
d |\
g(b/a/g/f/) e(g/f/e/d/) | c(d/c/B/A/) G2F | EGc cBc | e3 d2 d |\
g(b/a/g/f/) e(g/f/e/d/) | c(d/c/B/A/) G2g | ^fef def | a3 "^D.C."g2 |]
E |\


